!!!OTL: 127. Der getreue Eckart.
!!!ODT: 1840 (Mel.)
!!!ARE: Europa, Mitteleuropa, Deutschland, Niederrhein (?)
!!!SCT: B0127
!!!TXL: @@DE
!!!YEM: Copyright 1995, estate of Helmut Schaffrath.
**kern	**text
*ICvox	*
*Ivox	*
*M4/4	*
*met(c)	*
*clefG2	*
*k[b-]	*
*d:	*
=1	=1
4a	Jn
4g	der
4a	fin-
4dd	-ſtern
=2	=2
4cc	Mit-
8aL	-ter-
8b-J	.
4a	-nacht
4r	.
=3	=3
{4a	ſteht
8aL	der
8fJ	.
4d	Rit-
4g	-ter
=4	=4
4f	auf
8dL	der
8eJ	.
4d	Wacht,
4r}	.
=5	=5
{4f	ſchau-
8eL	-et
8fJ	.
4g	hin
4g	nach
=6	=6
4a	je-
8dL	-der
8eJ	.
(8fL	Seit,
8eJ	.
4d	.
=7	=7
4c)	.
4r}	.
{4e	dreht
4g	mit
=8	=8
4a	ſei-
8dL	-nem
8eJ	.
(4f	Schwerte
4e)	.
=9	=9
2d	weit.
2r}	.
==	==
!!!AGN: Ballade, Romanze
!!!GTL: Balladen und Romanzen
!!!ONB: ESAC (Essen Associative Code) Database: BOEHME
!!!AMT: simple quadruple
!!!AIN: vox
!!!EED: Helmut Schaffrath
!!!EEV: 1.0
!!@@COMMENT:"Mitgetheilt von W. v. Ʒuccalmaglio in Kretʒſchmers Volksl. JJ, Nr. 23, angeblich Volkslied
!!am Niederthein. (Nach ſeiner handſchriftl. Notiʒ wäre es 1830 von Frau Lütʒenkirchen in Wiesdorf
!!ihm mitgetheilt!
!!Die Melodie aus der altkirchlichen doriſchen Tonart iſt eine Vereinfachung der katholiſchen
!!Singweiſe: "Gegrüßet ſeiſt du Meeresſtern" (vergl. die alte Hymnenmel. bei Bäumker JJ, Nr. 7)."
!!@@END:
!!!URL-scan: https://archive.org/details/BoehmeVtLieder1895/page/n131/mode/2up
!!!ENC: Anna Maria Matuszewska
!!!EEV: 2024/18/06
*-	*-
